assets/svg/652.svg

<?xml version="1.0" encoding="utf-8"?>
<svg xmlns="http://www.w3.org/2000/svg" version="1.1" x="0px" y="0px" xml:space="preserve" width="53.978" height="53.978" viewBox="0.105 -53.978 53.978 53.978">
	<g>
		<rect x="0.105" y="-53.978" style="fill:none;" width="53.978" height="53.978"/>
		<line style="fill:none;stroke:#000000;stroke-width:0.3;" x1="0.105" y1="-47.062" x2="54.083" y2="-47.062"/>
		<line style="fill:none;stroke:#000000;stroke-width:0.3;" x1="54.083" y1="-51.312" x2="0.105" y2="-51.312"/>
		<path style="fill:none;stroke:#000000;stroke-width:0.3;" d="M0.105-48.902c0.644,0.047,1.303,0.299,2.269,0.782    c-0.448-1.233-1.344-1.908-2.269-1.968"/>
		<path style="fill:none;stroke:#000000;stroke-width:0.3;" d="M4.398-49.604c1.125,2.475,3.825,2.25,4.726-0.225    C7.098-48.817,6.423-48.817,4.398-49.604z"/>
		<path style="fill:none;stroke:#000000;stroke-width:0.3;" d="M27.624-38.329c-2.025,1.012-2.7,1.012-4.726,0.225    C24.023-35.629,26.723-35.854,27.624-38.329z"/>
		<path style="fill:none;stroke:#000000;stroke-width:0.3;" d="M45.749-43.767c-2.025,1.012-2.7,1.012-4.726,0.225    C42.148-41.067,44.848-41.292,45.749-43.767z"/>
		<path style="fill:none;stroke:#000000;stroke-width:0.3;" d="M27.324-23.142c1.125,2.475,3.825,2.25,4.725-0.225    C30.024-22.354,29.348-22.354,27.324-23.142z"/>
		<path style="fill:none;stroke:#000000;stroke-width:0.3;" d="M0.105-25.013c0.477-0.329,0.885-0.854,1.144-1.566    c-0.435,0.217-0.807,0.387-1.144,0.514"/>
		<path style="fill:none;stroke:#000000;stroke-width:0.3;" d="M26.874-12.642c-2.025,1.012-2.7,1.012-4.726,0.225    C23.273-9.942,25.973-10.167,26.874-12.642z"/>
		<path style="fill:none;stroke:#000000;stroke-width:0.3;" d="M5.024-5.579c1.125,2.475,3.824,2.25,4.725-0.225    C7.723-4.792,7.048-4.792,5.024-5.579z"/>
		<path style="fill:none;stroke:#000000;stroke-width:0.3;" d="M39.773-3.167c1.125,2.475,3.825,2.25,4.726-0.225    C42.473-2.379,41.798-2.379,39.773-3.167z"/>
		<path style="fill:none;stroke:#000000;stroke-width:0.3;" d="M11.148-48.346c2.025-0.788,2.7-0.788,4.726,0.225    C14.973-50.596,12.273-50.821,11.148-48.346z"/>
		<path style="fill:none;stroke:#000000;stroke-width:0.3;" d="M10.749-42.121c-0.9-2.475-3.601-2.7-4.726-0.225    C8.048-43.133,8.723-43.133,10.749-42.121z"/>
		<path style="fill:none;stroke:#000000;stroke-width:0.3;" d="M38.023-31.033c2.025-0.788,2.7-0.788,4.726,0.225    C41.848-33.283,39.148-33.508,38.023-31.033z"/>
		<path style="fill:none;stroke:#000000;stroke-width:0.3;" d="M16.898-29.846c-0.899-2.475-3.6-2.7-4.725-0.225    C14.199-30.858,14.874-30.858,16.898-29.846z"/>
		<path style="fill:none;stroke:#000000;stroke-width:0.3;" d="M13.348-17.42c-0.9-2.475-3.601-2.7-4.726-0.225    C10.648-18.433,11.323-18.433,13.348-17.42z"/>
		<path style="fill:none;stroke:#000000;stroke-width:0.3;" d="M22.023-0.971c2.025-0.788,2.7-0.788,4.726,0.225    C25.848-3.221,23.148-3.446,22.023-0.971z"/>
		<path style="fill:none;stroke:#000000;stroke-width:0.3;" d="M44.773-14.346c2.025-0.788,2.7-0.788,4.726,0.225    C48.598-16.596,45.898-16.821,44.773-14.346z"/>
		<path style="fill:none;stroke:#000000;stroke-width:0.3;" d="M17.898-49.604c1.125,2.475,3.825,2.25,4.726-0.225    C20.598-48.817,19.923-48.817,17.898-49.604z"/>
		<path style="fill:none;stroke:#000000;stroke-width:0.3;" d="M24.648-48.346c2.025-0.788,2.7-0.788,4.726,0.225    C28.473-50.596,25.773-50.821,24.648-48.346z"/>
		<path style="fill:none;stroke:#000000;stroke-width:0.3;" d="M31.398-49.604c1.125,2.475,3.825,2.25,4.726-0.225    C34.098-48.817,33.423-48.817,31.398-49.604z"/>
		<path style="fill:none;stroke:#000000;stroke-width:0.3;" d="M38.148-48.346c2.025-0.788,2.7-0.788,4.726,0.225    C41.973-50.596,39.273-50.821,38.148-48.346z"/>
		<path style="fill:none;stroke:#000000;stroke-width:0.3;" d="M44.898-49.604c1.125,2.475,3.825,2.25,4.726-0.225    C47.598-48.817,46.923-48.817,44.898-49.604z"/>
		<path style="fill:none;stroke:#000000;stroke-width:0.3;" d="M54.083-50.089c-0.932-0.061-1.893,0.501-2.457,1.743    c1.06-0.412,1.75-0.608,2.457-0.557"/>
		<path style="fill:none;stroke:#000000;stroke-width:0.3;" d="M54.083-26.065c-1.233,0.462-1.991,0.33-3.582-0.289    c0.802,1.763,2.402,2.155,3.582,1.341"/>
	</g>
</svg>

<svg xmlns="http://www.w3.org/2000/svg" xml:space="preserve" width="53.98" height="53.98" viewBox="0.1 -53.98 53.98 53.98"><path d="M.1-53.98h53.98V0H.1z" style="fill:none"/><path d="M.1-47.06h53.98M54.08-51.31H.1M.1-48.9c.65.04 1.3.3 2.27.78-.44-1.23-1.34-1.9-2.27-1.97M4.4-49.6c1.12 2.47 3.82 2.25 4.72-.23-2.02 1.01-2.7 1.01-4.72.23zM27.62-38.33c-2.02 1.01-2.7 1.01-4.72.23 1.12 2.47 3.82 2.25 4.72-.23zM45.75-43.77c-2.03 1.02-2.7 1.02-4.73.23 1.13 2.47 3.83 2.25 4.73-.23zM27.32-23.14c1.13 2.47 3.83 2.25 4.73-.23-2.03 1.02-2.7 1.02-4.73.23zM.1-25.01c.48-.33.89-.86 1.15-1.57-.44.22-.8.39-1.15.51M26.87-12.64c-2.02 1.01-2.7 1.01-4.72.22 1.12 2.48 3.82 2.25 4.72-.22zM5.02-5.58C6.15-3.1 8.85-3.33 9.75-5.8c-2.03 1-2.7 1-4.73.22zM39.77-3.17C40.9-.69 43.6-.92 44.5-3.39c-2.03 1.01-2.7 1.01-4.73.22zM11.15-48.35c2.02-.78 2.7-.78 4.72.23-.9-2.48-3.6-2.7-4.72-.23zM10.75-42.12c-.9-2.48-3.6-2.7-4.73-.23 2.03-.78 2.7-.78 4.73.23zM38.02-31.03c2.03-.8 2.7-.8 4.73.22-.9-2.47-3.6-2.7-4.73-.22zM16.9-29.85c-.9-2.47-3.6-2.7-4.73-.22 2.03-.79 2.7-.79 4.73.22zM13.35-17.42c-.9-2.48-3.6-2.7-4.73-.23 2.03-.78 2.7-.78 4.73.23zM22.02-.97c2.03-.79 2.7-.79 4.73.22-.9-2.47-3.6-2.7-4.73-.22zM44.77-14.35c2.03-.78 2.7-.78 4.73.23-.9-2.48-3.6-2.7-4.73-.23zM17.9-49.6c1.12 2.47 3.82 2.25 4.72-.23-2.02 1.01-2.7 1.01-4.72.23zM24.65-48.35c2.02-.78 2.7-.78 4.72.23-.9-2.48-3.6-2.7-4.72-.23zM31.4-49.6c1.12 2.47 3.82 2.25 4.72-.23-2.02 1.01-2.7 1.01-4.72.23zM38.15-48.35c2.02-.78 2.7-.78 4.72.23-.9-2.48-3.6-2.7-4.72-.23zM44.9-49.6c1.12 2.47 3.82 2.25 4.72-.23-2.02 1.01-2.7 1.01-4.72.23zM54.08-50.09c-.93-.06-1.89.5-2.45 1.74a5.64 5.64 0 0 1 2.45-.55M54.08-26.07c-1.23.47-1.99.33-3.58-.28.8 1.76 2.4 2.15 3.58 1.34" style="fill:none;stroke:#000;stroke-width:.3"/></svg>
